svgs/regular/microphone-lines-slash.svg

<svg xmlns="http://www.w3.org/2000/svg" viewBox="0 0 640 512"><!-- Font Awesome Pro 6.0.0-alpha2 by @fontawesome - https://fontawesome.com License - https://fontawesome.com/license (Commercial License) --><path d="M630.812 469.109L471.499 344.244C486.915 318.34 495.999 288.322 495.999 256V216C495.999 202.744 485.253 192 471.999 192S447.999 202.744 447.999 216V256C447.999 277.111 442.421 296.754 433.281 314.289L407.492 294.076C412.689 282.379 415.999 269.652 415.999 256V96C415.999 43 372.999 0 319.999 0S223.999 43 223.999 96V150.26L38.812 5.113C28.343 -3.059 13.312 -1.246 5.109 9.191C-3.063 19.629 -1.235 34.723 9.187 42.895L601.187 506.891C605.593 510.328 610.796 512 615.984 512C623.109 512 630.156 508.844 634.89 502.812C643.062 492.375 641.234 477.281 630.812 469.109ZM335.999 128H367.999V160H335.999C327.156 160 319.999 167.156 319.999 176S327.156 192 335.999 192H367.999V256C367.999 258.217 367.32 260.225 367.029 262.361L271.999 187.881V96C271.999 69.5 293.499 48 319.999 48S367.999 69.5 367.999 96H335.999C327.156 96 319.999 103.156 319.999 112S327.156 128 335.999 128ZM391.999 464H343.999V430.25C364.745 427.406 384.269 420.795 402.07 411.369L359.085 377.678C342.929 382.883 325.468 385.166 307.249 383.375C240.749 376.875 191.999 317.125 191.999 250.25V246.719L145.203 210.041C144.689 211.994 143.999 213.887 143.999 216V248.125C143.999 337.75 207.999 417.75 295.999 429.875V464H247.999C234.745 464 223.999 474.744 223.999 488C223.999 501.254 234.745 512 247.999 512H391.999C405.253 512 415.999 501.254 415.999 488C415.999 474.744 405.253 464 391.999 464Z"/></svg>

<svg xmlns="http://www.w3.org/2000/svg" viewBox="0 0 640 512"><!--! Font Awesome Pro 6.3.0 by @fontawesome - https://fontawesome.com License - https://fontawesome.com/license (Commercial License) Copyright 2023 Fonticons, Inc. --><path d="M38.8 5.1C28.4-3.1 13.3-1.2 5.1 9.2S-1.2 34.7 9.2 42.9l592 464c10.4 8.2 25.5 6.3 33.7-4.1s6.3-25.5-4.1-33.7L472.1 344.7c15.2-26 23.9-56.3 23.9-88.7V216c0-13.3-10.7-24-24-24s-24 10.7-24 24v40c0 21.2-5.1 41.1-14.2 58.7L408 294.5c5.2-11.8 8-24.8 8-38.5V96c0-53-43-96-96-96s-96 43-96 96v54.3L38.8 5.1zM272 187.9V96c0-26.5 21.5-48 48-48s48 21.5 48 48H336c-8.8 0-16 7.2-16 16s7.2 16 16 16h32v32H336c-8.8 0-16 7.2-16 16s7.2 16 16 16h32v64c0 2.3-.2 4.6-.5 6.8L272 187.9zM144.7 210c-.5 1.9-.7 3.9-.7 6v40c0 89.1 66.2 162.7 152 174.4V464H248c-13.3 0-24 10.7-24 24s10.7 24 24 24h72 72c13.3 0 24-10.7 24-24s-10.7-24-24-24H344V430.4c20.4-2.8 39.7-9.1 57.3-18.2l-43.1-33.9C346.1 382 333.3 384 320 384c-70.7 0-128-57.3-128-128v-8.7L144.7 210z"/></svg>
